X:879
T:Drag Her round the Road
R:reel
S:Anna Roussel
H:See also #374
Z:id:hn-reel-879
M:C|
K:Em
BEED E2DE | GEDB, DEGA | BEED E2DE |1 ~G3B A2GA :|2 ~G3B AGEF ||
|: G3F GBdc | ABBA BcBA | ~G3B dedB |1 A2GB AGED :|2 A2GB A2GA ||

